!!!!SEGMENT: pl-kk--kk-i-389--011_anonim--deo-gratias-solemne-in-g-no-1.krn
!!!cenid: 17xx:2530
!!!COM: Anonim
!!!COM-rismID: pe30004985
!!!CDT:
!!!CNT:
!!!OTL: Deo gratias Solemne in G No. 1
!!!PDT:
!!!AGN: Sacred
!!!YEC: Copyright 2022 Narodowy Instytut Fryderyka Chopina (https://polishscores.org)
!!!YEM: License CC-BY-4.0 (https://creativecommons.org/licenses/by/4.0)
!!!SMS-siglum: PL-Kk
!!!SMS-shelfmark: Kk.I.389
!!!SMS-variant:
!!!SMS-altvar:
!!!SMS-shelfwork: 011 W
!!!NIFC-rismSourceID: 1001146182
!!!NIFC-rismChildID: 1001147255
!!!NIFC-islandoraID: pl-kk:6976
!!!URL-pdf-islandora: https://repozytorium.nifc.pl/islandora/object/pl-kk%3A6976/datastream/PDF/view
!!!URL-scan: https://polish.musicsources.pl/pl/lokalizacje/galeria/rekopisy/5999/1 @EN{Scan on Polish Music Sources Website} @PL{Skany w portalu Dziedzictwo Muzyki Polskiej w otwartym dostępie}
!!!IIIF:
!!!ONB-nifc: UWAGA: 5 Deo Gratias w zakresie skanów: S – 18-19, A – 37-38, T – 56-57, B – 75-76. Każdy numer w osobnym pliku.
!!!AIN: 1 alto 1 bass 1 soprn 1 tenor
!!!key:
**kern	**text	**kern	**text	**kern	**text	**kern	**text
*part4	*part4	*part3	*part3	*part2	*part2	*part1	*part1
*staff4	*staff4	*staff3	*staff3	*staff2	*staff2	*staff1	*staff1
*I"Basso.	*	*I"Tenore.	*	*I"Alto.	*	*I"Soprano.	*
*I'B.	*	*I'T.	*	*I'A.	*	*I'S.	*
*ICvox	*	*ICvox	*	*ICvox	*	*ICvox	*
*Ibass	*	*Itenor	*	*Ialto	*	*Isoprn	*
*clefF4	*	*clefC4	*	*clefC3	*	*clefC1	*
*k[]	*	*k[]	*	*k[]	*	*k[]	*
*G:	*	*G:	*	*G:	*	*G:	*
*M2/2	*	*M2/2	*	*M2/2	*	*M2/2	*
*met(C.)	*	*met(C.)	*	*met(C.)	*	*met(C.)	*
=1	=1	=1	=1	=1	=1	=1	=1
*2\right	*	*	*	*2\right	*	*all\right:global	*
2G\	De-	1G	De-	2g\	De-	1b	De-
2B\	.	.	.	2d\	.	.	.
=2	=2	=2	=2	=2	=2	=2	=2
*	*	*	*	*	*	*2\right	*
2A\	.	1A	.	2e\	.	2cc\	.
2F#X\	-o	.	.	2f#X\	.	2dd\	.
=3	=3	=3	=3	=3	=3	=3	=3
2G\	gra-	1B	.	2d\	.	1dd	-o
2BB/	.	.	.	2g\	.	.	.
=4	=4	=4	=4	=4	=4	=4	=4
2C/	.	1A	-o	2g\	.	2ee\	gra-
2D\	.	.	.	2fn\	.	2dd\	.
=5	=5	=5	=5	=5	=5	=5	=5
2E\	.	1c	gra-	2e\	.	2cc\	.
2F#X\	.	.	.	2c\	-o	2a\	.
!LO:LB:g=original	!	!	!	!	!	!	!
=6	=6	=6	=6	=6	=6	=6	=6
2G\	.	1B	.	2d\	gra-	2b\	.
2BB/	.	.	.	2g\	.	2dd\	.
!	!	!	!	!LO:LB:g=original	!	!	!
=7	=7	=7	=7	=7	=7	=7	=7
2C/	-a-	1A	.	2g\	.	2ee\	.
2D/	-ti-	.	.	2f#X\	-ti-	2dd\	-ti-
=8	=8	=8	=8	=8	=8	=8	=8
2GG/	-as,	1G	-ti-	2g\	-as,	2dd\	-as
2G\	De-	.	.	4d\	De-	2r	.
.	.	.	.	4e\	.	.	.
!	!	!LO:LB:g=original	!	!	!	!	!
=9	=9	=9	=9	=9	=9	=9	=9
2Fn\	.	1A	-as,	2fn\	.	2a\	De-
2D\	-o	.	.	2f\	-o	2dd\	.
!	!	!	!	!	!	!LO:LB:g=original	!
=10	=10	=10	=10	=10	=10	=10	=10
2F\	gra-	1A	De-	2c\	gra-	1cc	-o
2A\	.	.	.	2f\	.	.	.
=11	=11	=11	=11	=11	=11	=11	=11
2B-X\	.	1G	.	2f\	.	2dd\	gra-
2c\	.	.	.	2e\	-ti-	2cc\	.
=12	=12	=12	=12	=12	=12	=12	=12
2F\	.	1F	.	2f\	-as,	2cc\	.
2B-X\	.	.	.	2f\	De-	[2b-X\	.
=13	=13	=13	=13	=13	=13	=13	=13
2G\	.	1E	.	2g\	.	2b-X\]	.
2A\	.	.	.	2e\	-o	2a\	.
=14	=14	=14	=14	=14	=14	=14	=14
2D\	.	1D	-o	2f\	gra-	2a\	.
2G\	.	.	.	2d\	.	2g\	.
=15	=15	=15	=15	=15	=15	=15	=15
2F#X\	.	1D	gra-	2d\	.	2a\	.
2G\	.	.	.	2g\	.	2bn\	.
!LO:LB:g=original	!	!	!	!LO:LB:g=original	!	!	!
=16	=16	=16	=16	=16	=16	=16	=16
2A\	.	1A	.	2e\	.	2cc\	.
2Fn\	.	.	.	2f\	.	2a\	.
=17	=17	=17	=17	=17	=17	=17	=17
2E\	.	1G	.	2c\	.	2cc\	.
2C/	.	.	.	2e\	.	2cc\	-ti-
=18	=18	=18	=18	=18	=18	=18	=18
2F\	.	1A	.	2f\	.	2a\	-as,
2D\	.	.	.	2a\	-ti-	2dd\	De-
=19	=19	=19	=19	=19	=19	=19	=19
2G\	.	1B	.	1g	-as,	2b\	.
2F\	.	.	.	.	.	2b\	-o
!	!	!	!	!	!	!LO:LB:g=original	!
=20	=20	=20	=20	=20	=20	=20	=20
2E\	.	1c	.	2g\	De-	2b\	gra-
2F\	.	.	.	2f\	.	2a\	.
=21	=21	=21	=21	=21	=21	=21	=21
2D\	.	1B	.	2f\	.	2a\	.
2E\	.	.	.	2e\	.	2g\	.
=22	=22	=22	=22	=22	=22	=22	=22
2C/	.	1A	.	2e\	.	2g\	.
2D/	.	.	.	2d\	.	2f#X/	.
!	!	!LO:LB:g=original	!	!	!	!	!
=23	=23	=23	=23	=23	=23	=23	=23
2BB/	.	1G	.	2d\	.	2f#X/	.
2C/	.	.	.	2c\	.	2e/	.
=24	=24	=24	=24	=24	=24	=24	=24
2AA/	.	1F#X	.	2c\	.	2e/	.
2BB/	-ti-	.	.	2B/	-o	2d/	.
!LO:LB:g=original	!	!	!	!	!	!	!
=25	=25	=25	=25	=25	=25	=25	=25
2GG/	-as.	1G	.	2d\	gra-	2g\	.
2G\	De-	.	.	2g\	.	2dd\	.
!	!	!	!	!LO:LB:g=original	!	!	!
=26	=26	=26	=26	=26	=26	=26	=26
2C/	.	1A	.	2g\	.	2ee\	.
2D/	-o	.	.	2f#X\	-ti-	2dd\	.
=27	=27	=27	=27	=27	=27	=27	=27
2GG/	gra-	2.G/	.	2g\	-as	2dd\	.
2C/	.	.	.	2e\	De-	2cc\	.
.	.	4G/	-ti-	.	.	.	.
=28	=28	=28	=28	=28	=28	=28	=28
2AA/	.	1E	-as	2a\	-o	2cc\	.
2GG#X/	.	.	.	2e\	gra-	2b\	.
=29	=29	=29	=29	=29	=29	=29	=29
2.AA/	.	1E	De_o	1a	-ti-	1cc	-ti-
4AA/	-ti-	.	.	.	.	.	.
=30	=30	=30	=30	=30	=30	=30	=30
0E	-as.	1E	grati-	0g#X	-as.	0b	-as.
=31-	=31	=31	=31	=31-	=31	=31-	=31
.	.	1E	-as.	.	.	.	.
==	==	==	==	==	==	==	==
*-	*-	*-	*-	*-	*-	*-	*-
!!!system-decoration: [(s1,s2,s3,s4)]
!!!ENC: Berenika Jozajtis
!!!END: 2023-11-13
!!!ENC: Leszek Kubiak
!!!END: 2024-01-22
